X:1
T:Engelska
T:efter Alfred Petersson, Nttraby, Blekinge (SvL, Band 18, nr 275)
O:Nttraby, Blekinge
S:Svenska Ltar
N:Svenska Ltar, Band 18 nr 275
R:Engelska
C:Alfred Petersson
M:2/4
L:1/16
Q:1/4=80
Z:Konverterad till abc-format av  Olle Paulsson 05-01-03
K:F
uc2|vfcAc BdcB|AcAc BdcB|AFAF BGBG|A(FA)F C4|
vfcAc BdcB|AcAc BdcB|Acfa agfe|e2f2 f2:|
|: a2|gece gbag|afef afef|gece gbag|afef afef|
dBAB dfef|cAFA cfef|dfed cdcB|1 G4 A2:|2 G4 F2||
